Adwaita++/status/16/weather-storm.svg

<svg height="16" width="16" xmlns="http://www.w3.org/2000/svg">
  <g fill="#474747">
    <path d="m9.51.044c-1.273 0-2.307.973-2.448 2.218-.324-.122-.657-.218-1.023-.218-1.643 0-2.975 1.343-2.975 3 0 .098.022.186.031.281a1.982 1.982 0 0 0 -1.022-.281 1.992 1.992 0 0 0 -1.984 2c.001 1.106.816 1.956 1.911 1.956h5v-1.5c-.016-.786.74-1.47 1.518-1.487.8-.017 1.499.68 1.482 1.487v1.5h4.5c.822 0 1.455-.627 1.455-1.456 0-.828-.666-1.5-1.487-1.5-.206 0-.411.05-.59.125.053-.202.094-.407.094-.625 0-1.23-.886-2.228-2.046-2.438.042-.181.062-.368.062-.562 0-1.381-1.11-2.5-2.479-2.5z"/>
    <path d="m8.492 6.994a.5.5 0 0 0 -.492.506v2.5h-3v1h-1.707l-2.646 2.646a.5.5 0 1 0 .707.708l2.353-2.354h1.293v3a.5.5 0 1 0 1 0v-3.424a.5.5 0 0 0 0-.152v-.424h2v.707l2 2v1.293a.5.5 0 1 0 1 0v-1h1.362l2.38 1.428a.5.5 0 1 0 .516-.856l-2.62-1.572h-1.93l-1.708-1.707v-.717a.5.5 0 0 0 0-.152v-2.924a.5.5 0 0 0 -.508-.506z"/>
  </g>
</svg>

<svg xmlns="http://www.w3.org/2000/svg" width="16" height="16">
    <g color="#000" fill="#474747">
        <path d="M9.51.044c-1.273 0-2.307.973-2.448 2.218-.324-.122-.657-.218-1.023-.218-1.643 0-2.975 1.343-2.975 3 0 .098.022.186.031.281a1.982 1.982 0 0 0-1.022-.281 1.992 1.992 0 0 0-1.984 2C.09 8.15.905 9 2 9h5V7.5c-.016-.786.74-1.47 1.518-1.487.8-.017 1.499.68 1.482 1.487V9h4.5c.822 0 1.455-.627 1.455-1.456 0-.828-.666-1.5-1.487-1.5-.206 0-.411.05-.59.125.053-.202.094-.407.094-.625 0-1.23-.886-2.228-2.046-2.438.042-.181.062-.368.062-.562 0-1.381-1.11-2.5-2.479-2.5z" style="marker:none" overflow="visible"/>
        <path d="M8.492 6.994A.5.5 0 0 0 8 7.5V10H5v1H3.293L.647 13.646a.5.5 0 1 0 .707.708L3.707 12H5v3a.5.5 0 1 0 1 0v-3.424a.5.5 0 0 0 0-.152V11h2v.707l2 2V15a.5.5 0 1 0 1 0v-1h1.362l2.38 1.428a.5.5 0 1 0 .516-.856L12.638 13h-1.93L9 11.293v-.717a.5.5 0 0 0 0-.152V7.5a.5.5 0 0 0-.508-.506z" style="line-height:normal;font-variant-ligatures:normal;font-variant-position:normal;font-variant-caps:normal;font-variant-numeric:normal;font-variant-alternates:normal;font-feature-settings:normal;text-indent:0;text-align:start;text-decoration-line:none;text-decoration-style:solid;text-decoration-color:#000;text-transform:none;text-orientation:mixed;shape-padding:0;isolation:auto;mix-blend-mode:normal" font-weight="400" font-family="sans-serif" white-space="normal" overflow="visible"/>
    </g>
</svg>
